X:2
T:Confirmation
C:Charlie Parker
L:1/8
M:C
I:linebreak $
K:F
"F" A c2 A"Bb" BA (3EF^F |"Eø" GdBG"A7" A ^C2 G |"Dm" z F3"G7" z2 z A |"Cm" GBAG"F7" z F2 B |$
"Bb7" =B_B_AF B A3 |"Eb7" z cBG"D7" ^FAD=B |"G7" z edA z2 z _e/d/ |"Gb7" ^c^FGE z ^c3 ||$
"F" A2 z F"Bb" (3BA_A G=A |"Eø" F/G/^DE z"A7" z ^C2 G |"Dm" z F2 z"G7" z2 z A |
"Cm" GBAG"F7" F2 FF |$"Bb7" z _ABF _AB z2 |"Eb7" z _EGB"D7" A/G/^F z2 |
"Gm" GB (3A/B/A/G"Gb7" c^GAF |"F" z4"F6" z2 z d ||$[K:Bb]"Cm" c2 z E/C/"CmM" =B G2 G |
"Cm" (3BA_A GE"F7" =A _G2 F |"Bb" AGAG"Bb6" z2 z G |"Bb" z4"Bb6" z2 z B ||$
[K:Db]"Ebm" (3dB=E c/B/G"Ebm6" z AF_F |"D7" EAA z A A2 G/=E/ |"Db" F/A/e z =d"Db6" _d/B/ z z2 ||$
[K:F]"Gm" z GDF"Gb7" _AE_DC ||"F" z c3"Bb" BA (3EF^F |"Eø" GdBG"A7" A^C z G |
"Dm" z F z2"G7" z2 z A |"Cm" GBAG"F7" z F2 B |$"Bb7" =B_B _A/B/_A/F/ B A3 |"Eb7" z cB^G"D7" A^CDF |
"Gm" z DF^G"Gb7" A F2 F- |"F" F4"F6" z4 |]

